X: 20073
T: Jimmy McBride's
R: reel
M: 4/4
K: Cmajor
|:D|EG{B}GE GcAG|EDCD EGcd|~e2dc AGEd|dedc AGcA|
EG{B}GE GcAG|EDCD EGcd|~e2dc AGcA|~GEDE C3:|
|:g|~g2^fg ec~c2|Gcea gede|Ad{^f}d^c de=fg|~a2 ge fedf|
ec~c2GcEc|AF~F2CFAF|GABc defg|ag^fg ecc:|

